icon-themes/breeze_svg/cmd/sc_bringtofront.svg

<svg viewBox="0 0 16 16" xmlns="http://www.w3.org/2000/svg">/&gt;<path d="m2 2v1h7 5v-1h-5zm9.5 2-.1875.21875-2.3125 2.5.65625.6875 1.34375-1.4375v4.03125 4h1v-4-4.03125l1.34375 1.4375.65625-.6875-2.3125-2.5zm-9.5 2v1h5 1v-1h-1zm0 4v1h5 1v-1h-1zm0 3v1h6v-1z" fill="#4d4d4d"/></svg>

<svg xmlns="http://www.w3.org/2000/svg" viewBox="0 0 16 16">
     />
 <path 
     style="fill:#4d4d4d" 
     d="M 2 2 L 2 3 L 9 3 L 14 3 L 14 2 L 9 2 L 2 2 z M 11.5 4 L 11.3125 4.21875 L 9 6.71875 L 9.65625 7.40625 L 11 5.96875 L 11 10 L 11 14 L 12 14 L 12 10 L 12 5.96875 L 13.34375 7.40625 L 14 6.71875 L 11.6875 4.21875 L 11.5 4 z M 2 6 L 2 7 L 7 7 L 8 7 L 8 6 L 7 6 L 2 6 z M 2 10 L 2 11 L 7 11 L 8 11 L 8 10 L 7 10 L 2 10 z M 2 13 L 2 14 L 8 14 L 8 13 L 2 13 z "
     />
 </svg>
